Bloom-Colors/scalable/apps/preferences-desktop-font-symbolic.svg

<svg width="16" height="16" version="1.1" xmlns="http://www.w3.org/2000/svg">
<path d="m16 0c-1.462 0.79964-4.472 1.1006-7.3192 1.0666-2.235 0.0134-6.5977-0.1844-7.3473 2.0001 0.2832-0.3901 5.4788-2.1612 4.9564 0.0387-0.6151 1.7917-1.7139 3.2851-2.6555 4.907-0.9149 0.0686-2.1823 0.1085-2.968 0.6545 0.20457-0.1265 1.9472-0.4728 2.6454-0.0919-1.0688 1.768-2.1717 3.199-2.956 5.123-0.2159 0.662-0.70235 1.725 0.04464 2.204 0.63373 0.295 0.18992-0.13 0.44646-0.543 1.0749-2.311 2.5549-4.257 3.9056-6.4025 0.7889 0.3282 1.5539 0.9361 2.4142 1.0307 1.1715 0.1388 3.1902-1.5161 3.5002-2.6539-1.3339 1.0013-3.6348 0.6891-5.1554 0.6564l3.2831-5.0588c0.3232 0.0986 0.8936 0.1259 1.8373 0.1358 2.199 0.0626 5.01-0.7477 5.368-3.0667z" fill="#666"/>
</svg>

<svg xmlns="http://www.w3.org/2000/svg" width="16" height="16" version="1.1">
 <path style="fill:#444444" d="M 16,0 C 14.538,0.79964 11.528,1.1006 8.6808,1.0666 6.4458,1.08 2.0831,0.8822 1.3335,3.0667 1.6167,2.6766 6.8123,0.9055 6.2899,3.1054 5.6748,4.8971 4.576,6.3905 3.6344,8.0124 2.7195,8.081 1.4521,8.1209 0.66645,8.6669 0.87102,8.5404 2.6136,8.1941 3.3119,8.575 2.2431,10.343 1.1402,11.774 0.35593,13.698 0.14003,14.36 -0.34642,15.423 0.40057,15.902 1.0343,16.197 0.59049,15.772 0.84703,15.359 1.9219,13.048 3.4019,11.102 4.7526,8.9565 5.5415,9.2847 6.3065,9.8926 7.1668,9.9872 8.3383,10.126 10.357,8.4711 10.667,7.3333 9.3331,8.3346 7.0322,8.0224 5.5116,7.9897 L 8.7947,2.9309 C 9.1179,3.0295 9.6883,3.0568 10.632,3.0667 12.831,3.1293 15.642,2.319 16,0 Z"/>
</svg>
